src/images/icons/employee-case-castle.svg

<svg width="105" height="139" viewBox="0 0 105 139" fill="none" xmlns="http://www.w3.org/2000/svg">
<path d="M27.5099 51.3481C25.8486 48.922 24.4862 46.6497 20.2251 47.91C10.1502 50.8898 9.13857 62.9417 5.86086 72.9236C2.04896 84.5324 5.68919 90.574 4.78537 102.759C3.85923 115.245 -0.661014 114.91 1.65051 124.272C7.48278 147.894 31.1255 135.196 55.4026 133.571C67.6786 132.75 88.9712 140.712 98.9906 133.571C112.598 123.873 93.6389 103.536 93.7777 86.8264C93.925 69.0955 84.6264 50.7702 74.8851 50.7702C72.0076 50.7702 69.9824 51.0731 68.3054 51.5912" stroke="#3C3D75"/>
<path d="M37.9837 90.0655C37.3884 80.9294 61.0161 85.6902 61.0161 85.6902C61.0161 85.6902 42.9369 86.1855 42.9369 90.0655C42.9369 95.5141 59.6773 91.9244 59.4477 99.9719C59.2215 107.899 46.239 104.76 46.239 109.3C46.239 113.18 57.9617 110.786 57.9617 117.143C57.9617 123.5 47.5598 122.014 46.8168 125.316C46.0738 128.618 51.7702 131.012 51.7702 131.012C51.7702 131.012 44.0926 130.104 43.5147 125.316C42.6656 118.28 52.3479 120.775 52.3479 117.638C52.3479 113.841 41.5967 116.633 41.2858 109.3C40.968 101.804 53.2562 102.614 53.2562 99.9719C53.2562 97.3302 38.4799 97.6796 37.9837 90.0655Z" stroke="#3C3D75"/>
<g filter="url(#filter0_d)">
<path d="M42.4039 72.977L41.6841 75.301M54.8929 72.8119L55.766 75.2184" stroke="#3C3D75"/>
</g>
<path d="M37.123 23.3055L38.066 19.8255H49.2106L50.4645 23.3055" stroke="#3C3D75"/>
<path d="M59.7196 28.7285V25.2613H50.4736V28.7285" stroke="#3C3D75"/>
<path d="M50.4736 30.9575V28.5634H59.7196V30.5447" stroke="#3C3D75"/>
<path d="M59.7451 30.462V21.0364H63.1197V30.462" stroke="#3C3D75"/>
<mask id="path-8-inside-1" fill="white">
<path d="M63.1197 21.0365L61.4324 15.131L59.7451 21.0365"/>
</mask>
<path d="M61.4324 15.131L62.3939 14.8563L61.4324 11.491L60.4709 14.8563L61.4324 15.131ZM64.0812 20.7618L62.3939 14.8563L60.4709 15.4057L62.1581 21.3112L64.0812 20.7618ZM60.4709 14.8563L58.7836 20.7618L60.7066 21.3112L62.3939 15.4057L60.4709 14.8563Z" fill="#3C3D75" mask="url(#path-8-inside-1)"/>
<path d="M37.1001 31.9481V23.3054H50.4737V31.0563" stroke="#3C3D75"/>
<path d="M37 27H33L32 30" stroke="#3C3D75"/>
<path d="M31.6514 37.1489V30.3796H34.3756H37.0999V31.9481" stroke="#3C3D75"/>
<g filter="url(#filter1_d)">
<path d="M46.2466 19.9779V16.0292H42.8721V19.9779" stroke="#3C3D75"/>
<mask id="path-14-inside-2" fill="white">
<path d="M46.5 15.5L44.5593 10.1236L42.5 15.5"/>
</mask>
<path d="M44.5593 10.1236L45.4999 9.78408L44.5872 7.25529L43.6255 9.7659L44.5593 10.1236ZM47.4406 15.1605L45.4999 9.78408L43.6187 10.4631L45.5594 15.8395L47.4406 15.1605ZM43.6255 9.7659L41.5662 15.1423L43.4338 15.8577L45.4932 10.4813L43.6255 9.7659Z" fill="#3C3D75" mask="url(#path-14-inside-2)"/>
</g>
<path d="M56.9953 36.5711C58.151 34.3421 58.8114 30.743 60.2148 30.2145C61.6182 29.686 63.9409 30.3264 64.5902 32.0307C66.5714 37.2315 68.1918 39.4803 68.5527 45.6519C69.3348 59.0255 59.8847 71.1609 59.8847 71.1609C59.8847 71.1609 57.3255 73.3073 48.6574 73.3073C39.9893 73.3073 36.6872 71.5736 36.6872 71.5736C36.6872 71.5736 27.8812 60.0121 27.5238 51.3481C27.2932 45.7573 28.1017 39.3779 30.6608 37.6443C31.5224 37.0606 32.9723 36.5711 32.9723 36.5711C32.9723 36.5711 34.0531 32.7639 36.2745 32.0307C38.1164 31.4227 39.5656 33.7345 41.1451 32.6086C41.6863 32.2228 41.938 31.9391 42.4659 31.5354C43.8693 30.4621 46.0885 28.7712 49.1527 29.4715C51.5468 30.0187 52.0636 40.1383 53.6932 39.543C55.3228 38.9477 56.1967 38.1113 56.9953 36.5711Z" stroke="#3C3D75"/>
<rect x="39.4199" y="75.7396" width="18.2188" height="4.99736" rx="2.49868" stroke="#3C3D75"/>
<defs>
<filter id="filter0_d" x="41.2065" y="66.6414" width="35.0296" height="22.8075" filterUnits="userSpaceOnUse" color-interpolation-filters="sRGB">
<feFlood flood-opacity="0" result="BackgroundImageFix"/>
<feColorMatrix in="SourceAlpha" type="matrix" values="0 0 0 0 0 0 0 0 0 0 0 0 0 0 0 0 0 0 127 0"/>
<feOffset dx="10" dy="4"/>
<feGaussianBlur stdDeviation="5"/>
<feColorMatrix type="matrix" values="0 0 0 0 0 0 0 0 0 0 0 0 0 0 0 0 0 0 0.4 0"/>
<feBlend mode="normal" in2="BackgroundImageFix" result="effect1_dropShadow"/>
<feBlend mode="normal" in="SourceGraphic" in2="effect1_dropShadow" result="shape"/>
</filter>
<filter id="filter1_d" x="37.3721" y="4.1236" width="24.3745" height="29.8543" filterUnits="userSpaceOnUse" color-interpolation-filters="sRGB">
<feFlood flood-opacity="0" result="BackgroundImageFix"/>
<feColorMatrix in="SourceAlpha" type="matrix" values="0 0 0 0 0 0 0 0 0 0 0 0 0 0 0 0 0 0 127 0"/>
<feOffset dx="5" dy="4"/>
<feGaussianBlur stdDeviation="5"/>
<feColorMatrix type="matrix" values="0 0 0 0 0 0 0 0 0 0 0 0 0 0 0 0 0 0 0.4 0"/>
<feBlend mode="normal" in2="BackgroundImageFix" result="effect1_dropShadow"/>
<feBlend mode="normal" in="SourceGraphic" in2="effect1_dropShadow" result="shape"/>
</filter>
</defs>
</svg>

<svg xmlns="http://www.w3.org/2000/svg" width="105" height="139" fill="none"><path stroke="#3C3D75" d="M27.51 51.348c-1.661-2.426-3.024-4.698-7.285-3.438C10.15 50.89 9.14 62.942 5.861 72.924c-3.812 11.608-.172 17.65-1.076 29.835-.926 12.486-5.446 12.151-3.134 21.513 5.832 23.622 29.474 10.924 53.752 9.299 12.276-.821 33.568 7.141 43.588 0 13.607-9.698-5.352-30.035-5.213-46.745.147-17.73-9.152-36.056-18.893-36.056-2.877 0-4.903.303-6.58.821"/><path stroke="#3C3D75" d="M37.984 90.066c-.596-9.137 23.032-4.376 23.032-4.376s-18.08.496-18.08 4.376c0 5.448 16.741 1.858 16.512 9.906-.227 7.927-13.209 4.788-13.209 9.328 0 3.88 11.723 1.486 11.723 7.843s-10.402 4.871-11.145 8.173c-.743 3.302 4.953 5.696 4.953 5.696s-7.677-.908-8.255-5.696c-.85-7.036 8.833-4.541 8.833-7.678 0-3.797-10.751-1.005-11.062-8.338-.318-7.496 11.97-6.686 11.97-9.328 0-2.642-14.776-2.292-15.272-9.906z"/><g filter="url(#filter0_d)"><path stroke="#3C3D75" d="M42.404 72.977l-.72 2.324m13.209-2.49l.873 2.407"/></g><path stroke="#3C3D75" d="M37.123 23.305l.943-3.48h11.145l1.254 3.48"/><path stroke="#3C3D75" d="M59.72 28.729V25.26h-9.246v3.468"/><path stroke="#3C3D75" d="M50.474 30.957v-2.394h9.246v1.982"/><path stroke="#3C3D75" d="M59.745 30.462v-9.426h3.375v9.426"/><mask id="a" fill="#fff"><path d="M63.12 21.037l-1.688-5.906-1.687 5.905"/></mask><path fill="#3C3D75" d="M61.432 15.131l.962-.275-.962-3.365-.961 3.365.961.275zm2.65 5.63l-1.688-5.905-1.923.55 1.687 5.905 1.923-.55zm-3.611-5.905l-1.687 5.906 1.923.55 1.687-5.906-1.923-.55z" mask="url(#a)"/><path stroke="#3C3D75" d="M37.1 31.948v-8.643h13.374v7.751"/><path stroke="#3C3D75" d="M37 27h-4l-1 3"/><path stroke="#3C3D75" d="M31.651 37.149v-6.77H37.1v1.57"/><g filter="url(#filter1_d)"><path stroke="#3C3D75" d="M46.247 19.978v-3.949h-3.375v3.949"/><mask id="b" fill="#fff"><path d="M46.5 15.5l-1.94-5.376L42.5 15.5"/></mask><path fill="#3C3D75" d="M44.56 10.124l.94-.34-.913-2.529-.962 2.51.934.359zm2.88 5.037L45.5 9.784l-1.881.68 1.94 5.375 1.882-.678zm-3.814-5.395l-2.06 5.376 1.868.716 2.06-5.377-1.868-.715z" mask="url(#b)"/></g><path stroke="#3C3D75" d="M56.995 36.571c1.156-2.229 1.816-5.828 3.22-6.356 1.403-.529 3.726.111 4.375 1.816 1.981 5.2 3.602 7.45 3.963 13.62.782 13.374-8.668 25.51-8.668 25.51s-2.56 2.146-11.228 2.146-11.97-1.733-11.97-1.733-8.806-11.562-9.163-20.226c-.23-5.59.578-11.97 3.137-13.704.861-.583 2.311-1.073 2.311-1.073s1.081-3.807 3.303-4.54c1.841-.608 3.29 1.703 4.87.578.541-.386.793-.67 1.32-1.074 1.404-1.073 3.623-2.764 6.688-2.064 2.394.548 2.91 10.667 4.54 10.072 1.63-.595 2.504-1.432 3.302-2.972z"/><rect width="18.219" height="4.997" x="39.42" y="75.74" stroke="#3C3D75" rx="2.499"/><defs><filter id="filter0_d" width="35.03" height="22.808" x="41.206" y="66.641" color-interpolation-filters="sRGB" filterUnits="userSpaceOnUse"><feFlood flood-opacity="0" result="BackgroundImageFix"/><feColorMatrix in="SourceAlpha" values="0 0 0 0 0 0 0 0 0 0 0 0 0 0 0 0 0 0 127 0"/><feOffset dx="10" dy="4"/><feGaussianBlur stdDeviation="5"/><feColorMatrix values="0 0 0 0 0 0 0 0 0 0 0 0 0 0 0 0 0 0 0.4 0"/><feBlend in2="BackgroundImageFix" result="effect1_dropShadow"/><feBlend in="SourceGraphic" in2="effect1_dropShadow" result="shape"/></filter><filter id="filter1_d" width="24.375" height="29.854" x="37.372" y="4.124" color-interpolation-filters="sRGB" filterUnits="userSpaceOnUse"><feFlood flood-opacity="0" result="BackgroundImageFix"/><feColorMatrix in="SourceAlpha" values="0 0 0 0 0 0 0 0 0 0 0 0 0 0 0 0 0 0 127 0"/><feOffset dx="5" dy="4"/><feGaussianBlur stdDeviation="5"/><feColorMatrix values="0 0 0 0 0 0 0 0 0 0 0 0 0 0 0 0 0 0 0.4 0"/><feBlend in2="BackgroundImageFix" result="effect1_dropShadow"/><feBlend in="SourceGraphic" in2="effect1_dropShadow" result="shape"/></filter></defs></svg>
